; generated by Slic3r 1.1.0 on 2014-06-26 at 15:24:19

; perimeters extrusion width = 0.50mm
; infill extrusion width = 0.70mm
; solid infill extrusion width = 0.70mm
; top infill extrusion width = 0.70mm

G21 ; set units to millimeters
M107
M190 S55 ; wait for bed temperature to be reached
M104 S205 ; set temperature
G28 ; home all axes
M109 S205 ; wait for temperature to be reached
G90 ; use absolute coordinates
G92 E0
M82 ; use absolute distances for extrusion
G1 F1800.000 E-2.00000
G1 Z1.300 F7800.000
G92 E0
G1 X85.886 Y64.674 F7800.000
G1 Z0.300 F7800.000
G1 E2.00000 F1800.000
G1 X87.534 Y62.515 E2.16939 F540
G1 X89.220 Y60.598 E2.32859
G1 X90.820 Y58.998 E2.46970
G1 X92.683 Y57.698 E2.61137
G1 X95.417 Y57.095 E2.78596
G1 X109.017 Y57.095 E3.63409
G1 X111.253 Y57.492 E3.77576
G1 X113.281 Y58.689 E3.92262
G1 X118.511 Y63.235 E4.35476
G1 X119.938 Y65.002 E4.49642
G1 X120.683 Y67.236 E4.64328
G1 X125.359 Y100.509 E6.73867
G1 X125.277 Y102.779 E6.88033
G1 X124.114 Y105.326 E7.05493
G1 X122.466 Y107.485 E7.22432
G1 X120.780 Y109.402 E7.38352
G1 X119.180 Y111.002 E7.52463
G1 X117.317 Y112.302 E7.66629
G1 X114.583 Y112.905 E7.84089
G1 X100.983 Y112.905 E8.68902
G1 X98.747 Y112.508 E8.83069
G1 X96.719 Y111.311 E8.97755
G1 X91.489 Y106.765 E9.40969
G1 X90.062 Y104.998 E9.55135
G1 X89.317 Y102.764 E9.69821
G1 X84.641 Y69.491 E11.79360
G1 X84.723 Y67.221 E11.93526
G1 X85.855 Y64.743 E12.10518
G1 F1800.000 E10.10518
G1 Z1.300 F7800.000
G92 E0
G1 X101.501 Y104.455 F7800.000
G1 Z0.300 F7800.000
G1 E2.00000 F1800.000
G1 X114.066 Y104.455 E2.78355 F540
G1 X114.416 Y104.805 E2.81442
G1 X114.066 Y105.155 E2.84529
G1 X101.501 Y105.155 E3.62885
G1 X101.151 Y104.805 E3.65971
G1 X101.448 Y104.508 E3.68590
G1 X114.273 Y105.655 F7800.000
G1 X101.294 Y105.655 E4.49529 F540
G1 X100.444 Y104.805 E4.57026
G1 X101.294 Y103.955 E4.64522
G1 X114.273 Y103.955 E5.45461
G1 X115.123 Y104.805 E5.52957
G1 X114.326 Y105.602 E5.59986
G1 X114.480 Y106.155 F7800.000
G1 X101.087 Y106.155 E6.43508 F540
G1 X99.737 Y104.805 E6.55414
G1 X101.087 Y103.455 E6.67320
G1 X114.480 Y103.455 E7.50842
G1 X115.830 Y104.805 E7.62748
G1 X114.533 Y106.102 E7.74187
G1 X114.126 Y105.802 F7800.000
G1 F1800.000 E5.74187
G1 Z1.300 F7800.000
G92 E0
G1 X117.315 Y101.470 F7800.000
G1 Z0.300 F7800.000
G1 E2.00000 F1800.000
G1 X116.919 Y101.172 E2.03087 F540
G1 X115.171 Y88.730 E2.81442
G1 X115.469 Y88.335 E2.84529
G1 X115.864 Y88.633 E2.87616
G1 X117.613 Y101.075 E3.65971
G1 X117.360 Y101.410 E3.68590
G1 X117.413 Y102.171 F7800.000
G1 X116.453 Y101.447 E3.76087 F540
G1 X114.647 Y88.595 E4.57026
G1 X115.370 Y87.635 E4.64522
G1 X116.330 Y88.358 E4.72019
G1 X118.137 Y101.211 E5.52957
G1 X117.458 Y102.111 E5.59986
G1 X117.512 Y102.871 F7800.000
G1 X115.987 Y101.722 E5.71892 F540
G1 X114.123 Y88.459 E6.55414
G1 X115.272 Y86.935 E6.67320
G1 X116.797 Y88.084 E6.79226
G1 X118.661 Y101.346 E7.62748
G1 X117.557 Y102.811 E7.74187
G1 X117.316 Y102.411 F7800.000
G1 F1800.000 E5.74187
G1 Z1.300 F7800.000
G92 E0
G1 X97.613 Y101.075 F7800.000
G1 Z0.300 F7800.000
G1 E2.00000 F1800.000
G1 X97.315 Y101.470 E2.03087 F540
G1 X96.919 Y101.172 E2.06174
G1 X95.171 Y88.730 E2.84529
G1 X95.469 Y88.335 E2.87616
G1 X95.864 Y88.633 E2.90703
G1 X97.602 Y101.001 E3.68590
G1 X95.370 Y87.635 F7800.000
G1 X96.330 Y88.358 E3.76087 F540
G1 X98.137 Y101.211 E4.57026
G1 X97.413 Y102.171 E4.64522
G1 X96.453 Y101.447 E4.72019
G1 X94.647 Y88.595 E5.52957
G1 X95.325 Y87.695 E5.59986
G1 X95.272 Y86.935 F7800.000
G1 X96.797 Y88.084 E5.71892 F540
G1 X98.661 Y101.346 E6.55414
G1 X97.512 Y102.871 E6.67320
G1 X95.987 Y101.722 E6.79226
G1 X94.123 Y88.459 E7.62748
G1 X95.227 Y86.994 E7.74187
G1 X95.467 Y87.395 F7800.000
G1 F1800.000 E5.74187
G1 Z1.300 F7800.000
G92 E0
G1 X96.097 Y88.496 F7800.000
G1 X98.193 Y86.319 F7800.000
G1 X98.368 Y85.000 F7800.000
G1 Z0.300 F7800.000
G1 E2.00000 F1800.000
G1 X98.718 Y84.650 E2.03087 F540
G1 X111.282 Y84.650 E2.81442
G1 X111.632 Y85.000 E2.84529
G1 X111.282 Y85.350 E2.87616
G1 X98.718 Y85.350 E3.65971
G1 X98.421 Y85.053 E3.68590
G1 X111.489 Y85.850 F7800.000
G1 X98.511 Y85.850 E4.49529 F540
G1 X97.661 Y85.000 E4.57026
G1 X98.511 Y84.150 E4.64522
G1 X111.489 Y84.150 E5.45461
G1 X112.339 Y85.000 E5.52957
G1 X111.542 Y85.797 E5.59986
G1 X111.696 Y86.350 F7800.000
G1 X98.304 Y86.350 E6.43508 F540
G1 X96.954 Y85.000 E6.55414
G1 X98.304 Y83.650 E6.67320
G1 X111.696 Y83.650 E7.50842
G1 X113.046 Y85.000 E7.62748
G1 X111.749 Y86.297 E7.74187
G1 X111.343 Y85.996 F7800.000
G1 F1800.000 E5.74187
G1 Z1.300 F7800.000
G92 E0
G1 X94.829 Y81.270 F7800.000
G1 Z0.300 F7800.000
G1 E2.00000 F1800.000
G1 X94.531 Y81.665 E2.03087 F540
G1 X94.136 Y81.367 E2.06174
G1 X92.387 Y68.925 E2.84529
G1 X92.685 Y68.530 E2.87616
G1 X93.081 Y68.828 E2.90703
G1 X94.819 Y81.195 E3.68590
G1 X91.863 Y68.789 F7800.000
G1 X92.587 Y67.829 E3.76087 F540
G1 X93.547 Y68.553 E3.83583
G1 X95.353 Y81.405 E4.64522
G1 X94.630 Y82.365 E4.72019
G1 X93.670 Y81.642 E4.79515
G1 X91.874 Y68.864 E5.59986
G1 X91.339 Y68.654 F7800.000
G1 X92.488 Y67.129 E5.71892 F540
G1 X94.013 Y68.278 E5.83798
G1 X95.877 Y81.541 E6.67320
G1 X94.728 Y83.065 E6.79226
G1 X93.203 Y81.916 E6.91133
G1 X91.350 Y68.728 E7.74187
G1 X91.835 Y68.584 F7800.000
G1 F1800.000 E5.74187
G1 Z1.300 F7800.000
G92 E0
G1 X112.387 Y68.925 F7800.000
G1 Z0.300 F7800.000
G1 E2.00000 F1800.000
G1 X112.685 Y68.530 E2.03087 F540
G1 X113.081 Y68.828 E2.06174
G1 X114.829 Y81.270 E2.84529
G1 X114.531 Y81.665 E2.87616
G1 X114.136 Y81.367 E2.90703
G1 X112.398 Y68.999 E3.68590
G1 X113.547 Y68.553 F7800.000
G1 X115.353 Y81.405 E4.49529 F540
G1 X114.630 Y82.365 E4.57026
G1 X113.670 Y81.642 E4.64522
G1 X111.863 Y68.789 E5.45461
G1 X112.587 Y67.829 E5.52957
G1 X113.487 Y68.508 E5.59986
G1 X114.013 Y68.278 F7800.000
G1 X115.877 Y81.541 E6.43508 F540
G1 X114.728 Y83.065 E6.55414
G1 X113.203 Y81.916 E6.67320
G1 X111.339 Y68.654 E7.50842
G1 X112.488 Y67.129 E7.62748
G1 X113.953 Y68.233 E7.74187
G1 X113.712 Y68.677 F7800.000
G1 F1800.000 E5.74187
G1 Z1.300 F7800.000
G92 E0
G1 X108.849 Y65.195 F7800.000
G1 Z0.300 F7800.000
G1 E2.00000 F1800.000
G1 X108.499 Y65.545 E2.03087 F540
G1 X95.934 Y65.545 E2.81442
G1 X95.584 Y65.195 E2.84529
G1 X95.934 Y64.845 E2.87616
G1 X108.499 Y64.845 E3.65971
G1 X108.796 Y65.142 E3.68590
G1 X109.556 Y65.195 F7800.000
G1 X108.706 Y66.045 E3.76087 F540
G1 X95.727 Y66.045 E4.57026
G1 X94.877 Y65.195 E4.64522
G1 X95.727 Y64.345 E4.72019
G1 X108.706 Y64.345 E5.52957
G1 X109.503 Y65.142 E5.59986
G1 X110.263 Y65.195 F7800.000
G1 X108.913 Y66.545 E5.71892 F540
G1 X95.520 Y66.545 E6.55414
G1 X94.170 Y65.195 E6.67320
G1 X95.520 Y63.845 E6.79226
G1 X108.913 Y63.845 E7.62748
G1 X110.210 Y65.142 E7.74187
G1 X109.780 Y65.324 F7800.000
M106 S255
M104 S200 ; set temperature
M140 S50 ; set bed temperature
G1 F1800.000 E5.74187
G1 Z1.600 F7800.000
G92 E0
G1 X114.066 Y104.455 F7800.000
G1 Z0.600 F7800.000
G1 E2.00000 F1800.000
G1 X114.416 Y104.805 E2.03087 F1289.009
G1 X114.066 Y105.155 E2.06174
G1 X101.501 Y105.155 E2.84529
G1 X101.151 Y104.805 E2.87616
G1 X101.501 Y104.455 E2.90703
G1 X113.991 Y104.455 E3.68590
G1 X115.123 Y104.805 F7800.000
G1 X114.273 Y105.655 E3.76087 F1289.009
G1 X101.294 Y105.655 E4.57026
G1 X100.444 Y104.805 E4.64522
G1 X101.294 Y103.955 E4.72019
G1 X114.273 Y103.955 E5.52957
G1 X115.070 Y104.752 E5.59986
G1 X115.830 Y104.805 F7800.000
G1 X114.480 Y106.155 E5.71892 F1289.009
G1 X101.087 Y106.155 E6.55414
G1 X99.737 Y104.805 E6.67320
G1 X101.087 Y103.455 E6.79226
G1 X114.480 Y103.455 E7.62748
G1 X115.777 Y104.752 E7.74187
G1 X115.347 Y104.935 F7800.000
G1 F1800.000 E5.74187
G1 Z1.600 F7800.000
G92 E0
G1 X97.613 Y101.075 F7800.000
G1 Z0.600 F7800.000
G1 E2.00000 F1800.000
G1 X97.315 Y101.470 E2.03087 F1289.009
G1 X96.919 Y101.172 E2.06174
G1 X95.171 Y88.730 E2.84529
G1 X95.469 Y88.335 E2.87616
G1 X95.864 Y88.633 E2.90703
G1 X97.602 Y101.001 E3.68590
G1 X96.453 Y101.447 F7800.000
G1 X94.647 Y88.595 E4.49529 F1289.009
G1 X95.370 Y87.635 E4.57026
G1 X96.330 Y88.358 E4.64522
G1 X98.137 Y101.211 E5.45461
G1 X97.413 Y102.171 E5.52957
G1 X96.513 Y101.492 E5.59986
G1 X95.987 Y101.722 F7800.000
G1 X94.123 Y88.459 E6.43508 F1289.009
G1 X95.272 Y86.935 E6.55414
G1 X96.797 Y88.084 E6.67320
G1 X98.661 Y101.346 E7.50842
G1 X97.512 Y102.871 E7.62748
G1 X96.047 Y101.767 E7.74187
G1 X96.288 Y101.323 F7800.000
G1 F1800.000 E5.74187
G1 Z1.600 F7800.000
G92 E0
G1 X116.919 Y101.172 F7800.000
G1 Z0.600 F7800.000
G1 E2.00000 F1800.000
G1 X115.171 Y88.730 E2.78355 F1289.009
G1 X115.469 Y88.335 E2.81442
G1 X115.864 Y88.633 E2.84529
G1 X117.613 Y101.075 E3.62885
G1 X117.315 Y101.470 E3.65971
G1 X116.979 Y101.218 E3.68590
G1 X117.413 Y102.171 F7800.000
G1 X116.453 Y101.447 E3.76087 F1289.009
G1 X114.647 Y88.595 E4.57026
G1 X115.370 Y87.635 E4.64522
G1 X116.330 Y88.358 E4.72019
G1 X118.137 Y101.211 E5.52957
G1 X117.458 Y102.111 E5.59986
G1 X117.512 Y102.871 F7800.000
G1 X115.987 Y101.722 E5.71892 F1289.009
G1 X114.123 Y88.459 E6.55414
G1 X115.272 Y86.935 E6.67320
G1 X116.797 Y88.084 E6.79226
G1 X118.661 Y101.346 E7.62748
G1 X117.557 Y102.811 E7.74187
G1 X117.316 Y102.411 F7800.000
G1 F1800.000 E5.74187
G1 Z1.600 F7800.000
G92 E0
G1 X111.282 Y85.350 F7800.000
G1 Z0.600 F7800.000
G1 E2.00000 F1800.000
G1 X98.718 Y85.350 E2.78355 F1289.009
G1 X98.368 Y85.000 E2.81442
G1 X98.718 Y84.650 E2.84529
G1 X111.282 Y84.650 E3.62885
G1 X111.632 Y85.000 E3.65971
G1 X111.335 Y85.297 E3.68590
G1 X97.661 Y85.000 F7800.000
G1 X98.511 Y84.150 E3.76087 F1289.009
G1 X111.489 Y84.150 E4.57026
G1 X112.339 Y85.000 E4.64522
G1 X111.489 Y85.850 E4.72019
G1 X98.511 Y85.850 E5.52957
G1 X97.714 Y85.053 E5.59986
G1 X96.954 Y85.000 F7800.000
G1 X98.304 Y83.650 E5.71892 F1289.009
G1 X111.696 Y83.650 E6.55414
G1 X113.046 Y85.000 E6.67320
G1 X111.696 Y86.350 E6.79226
G1 X98.304 Y86.350 E7.62748
G1 X97.007 Y85.053 E7.74187
G1 X97.437 Y84.871 F7800.000
G1 F1800.000 E5.74187
G1 Z1.600 F7800.000
G92 E0
G1 X94.531 Y81.665 F7800.000
G1 Z0.600 F7800.000
G1 E2.00000 F1800.000
G1 X94.136 Y81.367 E2.03087 F1289.009
G1 X92.387 Y68.925 E2.81442
G1 X92.685 Y68.530 E2.84529
G1 X93.081 Y68.828 E2.87616
G1 X94.829 Y81.270 E3.65971
G1 X94.576 Y81.605 E3.68590
G1 X92.587 Y67.829 F7800.000
G1 X93.547 Y68.553 E3.76087 F1289.009
G1 X95.353 Y81.405 E4.57026
G1 X94.630 Y82.365 E4.64522
G1 X93.670 Y81.642 E4.72019
G1 X91.863 Y68.789 E5.52957
G1 X92.542 Y67.889 E5.59986
G1 X92.488 Y67.129 F7800.000
G1 X94.013 Y68.278 E5.71892 F1289.009
G1 X95.877 Y81.541 E6.55414
G1 X94.728 Y83.065 E6.67320
G1 X93.203 Y81.916 E6.79227
G1 X91.339 Y68.654 E7.62748
G1 X92.443 Y67.189 E7.74187
G1 X92.684 Y67.589 F7800.000
G1 F1800.000 E5.74187
G1 Z1.600 F7800.000
G92 E0
G1 X112.387 Y68.925 F7800.000
G1 Z0.600 F7800.000
G1 E2.00000 F1800.000
G1 X112.685 Y68.530 E2.03087 F1289.009
G1 X113.081 Y68.828 E2.06174
G1 X114.829 Y81.270 E2.84529
G1 X114.531 Y81.665 E2.87616
G1 X114.136 Y81.367 E2.90703
G1 X112.398 Y68.999 E3.68590
G1 X112.587 Y67.829 F7800.000
G1 X113.547 Y68.553 E3.76087 F1289.009
G1 X115.353 Y81.405 E4.57026
G1 X114.630 Y82.365 E4.64522
G1 X113.670 Y81.642 E4.72019
G1 X111.863 Y68.789 E5.52957
G1 X112.542 Y67.889 E5.59986
G1 X112.488 Y67.129 F7800.000
G1 X114.013 Y68.278 E5.71892 F1289.009
G1 X115.877 Y81.541 E6.55414
G1 X114.728 Y83.065 E6.67320
G1 X113.203 Y81.916 E6.79226
G1 X111.339 Y68.654 E7.62748
G1 X112.443 Y67.189 E7.74187
G1 X112.684 Y67.589 F7800.000
G1 F1800.000 E5.74187
G1 Z1.600 F7800.000
G92 E0
G1 X108.849 Y65.195 F7800.000
G1 Z0.600 F7800.000
G1 E2.00000 F1800.000
G1 X108.499 Y65.545 E2.03087 F1289.009
G1 X95.934 Y65.545 E2.81442
G1 X95.584 Y65.195 E2.84529
G1 X95.934 Y64.845 E2.87616
G1 X108.499 Y64.845 E3.65971
G1 X108.796 Y65.142 E3.68590
G1 X94.877 Y65.195 F7800.000
G1 X95.727 Y64.345 E3.76087 F1289.009
G1 X108.706 Y64.345 E4.57026
G1 X109.556 Y65.195 E4.64522
G1 X108.706 Y66.045 E4.72019
G1 X95.727 Y66.045 E5.52957
G1 X94.930 Y65.248 E5.59986
G1 X94.170 Y65.195 F7800.000
G1 X95.520 Y63.845 E5.71892 F1289.009
G1 X108.913 Y63.845 E6.55414
G1 X110.263 Y65.195 E6.67320
G1 X108.913 Y66.545 E6.79226
G1 X95.520 Y66.545 E7.62748
G1 X94.223 Y65.248 E7.74187
G1 X94.653 Y65.065 F7800.000
G1 F1800.000 E5.74187
G1 Z1.900 F7800.000
G92 E0
G1 X101.501 Y104.455 F7800.000
G1 Z0.900 F7800.000
G1 E2.00000 F1800.000
G1 X114.066 Y104.455 E2.78355 F1289.009
G1 X114.416 Y104.805 E2.81442
G1 X114.066 Y105.155 E2.84529
G1 X101.501 Y105.155 E3.62885
G1 X101.151 Y104.805 E3.65971
G1 X101.448 Y104.508 E3.68590
G1 X101.294 Y105.655 F7800.000
G1 X100.444 Y104.805 E3.76087 F1289.009
G1 X101.294 Y103.955 E3.83583
G1 X114.273 Y103.955 E4.64522
G1 X115.123 Y104.805 E4.72018
G1 X114.273 Y105.655 E4.79515
G1 X101.369 Y105.655 E5.59986
G1 X101.087 Y106.155 F7800.000
G1 X99.737 Y104.805 E5.71892 F1289.009
G1 X101.087 Y103.455 E5.83798
G1 X114.480 Y103.455 E6.67320
G1 X115.830 Y104.805 E6.79226
G1 X114.480 Y106.155 E6.91133
G1 X101.162 Y106.155 E7.74187
G1 X101.087 Y105.655 F7800.000
G1 F1800.000 E5.74187
G1 Z1.900 F7800.000
G92 E0
G1 X97.315 Y101.470 F7800.000
G1 Z0.900 F7800.000
G1 E2.00000 F1800.000
G1 X96.919 Y101.172 E2.03087 F1289.009
G1 X95.171 Y88.730 E2.81442
G1 X95.469 Y88.335 E2.84529
G1 X95.864 Y88.633 E2.87616
G1 X97.613 Y101.075 E3.65971
G1 X97.360 Y101.410 E3.68590
G1 X96.453 Y101.447 F7800.000
G1 X94.647 Y88.595 E4.49529 F1289.009
G1 X95.370 Y87.635 E4.57026
G1 X96.330 Y88.358 E4.64522
G1 X98.137 Y101.211 E5.45461
G1 X97.413 Y102.171 E5.52957
G1 X96.513 Y101.492 E5.59986
G1 X95.987 Y101.722 F7800.000
G1 X94.123 Y88.459 E6.43508 F1289.009
G1 X95.272 Y86.935 E6.55414
G1 X96.797 Y88.084 E6.67320
G1 X98.661 Y101.346 E7.50842
G1 X97.512 Y102.871 E7.62748
G1 X96.047 Y101.767 E7.74187
G1 X96.288 Y101.323 F7800.000
G1 F1800.000 E5.74187
G1 Z1.900 F7800.000
G92 E0
G1 X116.919 Y101.172 F7800.000
G1 Z0.900 F7800.000
G1 E2.00000 F1800.000
G1 X115.171 Y88.730 E2.78355 F1289.009
G1 X115.469 Y88.335 E2.81442
G1 X115.864 Y88.633 E2.84529
G1 X117.613 Y101.075 E3.62885
G1 X117.315 Y101.470 E3.65971
G1 X116.979 Y101.218 E3.68590
G1 X115.370 Y87.635 F7800.000
G1 X116.330 Y88.358 E3.76087 F1289.009
G1 X118.137 Y101.211 E4.57026
G1 X117.413 Y102.171 E4.64522
G1 X116.453 Y101.447 E4.72019
G1 X114.647 Y88.595 E5.52957
G1 X115.325 Y87.695 E5.59986
G1 X115.272 Y86.935 F7800.000
G1 X116.797 Y88.084 E5.71892 F1289.009
G1 X118.661 Y101.346 E6.55414
G1 X117.512 Y102.871 E6.67320
G1 X115.987 Y101.722 E6.79227
G1 X114.123 Y88.459 E7.62748
G1 X115.227 Y86.994 E7.74187
G1 X115.467 Y87.395 F7800.000
G1 F1800.000 E5.74187
G1 Z1.900 F7800.000
G92 E0
G1 X111.632 Y85.000 F7800.000
G1 Z0.900 F7800.000
G1 E2.00000 F1800.000
G1 X111.282 Y85.350 E2.03087 F1289.009
G1 X98.718 Y85.350 E2.81442
G1 X98.368 Y85.000 E2.84529
G1 X98.718 Y84.650 E2.87616
G1 X111.282 Y84.650 E3.65971
G1 X111.579 Y84.947 E3.68590
G1 X97.661 Y85.000 F7800.000
G1 X98.511 Y84.150 E3.76087 F1289.009
G1 X111.489 Y84.150 E4.57026
G1 X112.339 Y85.000 E4.64522
G1 X111.489 Y85.850 E4.72019
G1 X98.511 Y85.850 E5.52957
G1 X97.714 Y85.053 E5.59986
G1 X96.954 Y85.000 F7800.000
G1 X98.304 Y83.650 E5.71892 F1289.009
G1 X111.696 Y83.650 E6.55414
G1 X113.046 Y85.000 E6.67320
G1 X111.696 Y86.350 E6.79226
G1 X98.304 Y86.350 E7.62748
G1 X97.007 Y85.053 E7.74187
G1 X97.437 Y84.871 F7800.000
G1 F1800.000 E5.74187
G1 Z1.900 F7800.000
G92 E0
G1 X94.531 Y81.665 F7800.000
G1 Z0.900 F7800.000
G1 E2.00000 F1800.000
G1 X94.136 Y81.367 E2.03087 F1289.009
G1 X92.387 Y68.925 E2.81442
G1 X92.685 Y68.530 E2.84529
G1 X93.081 Y68.828 E2.87616
G1 X94.829 Y81.270 E3.65971
G1 X94.576 Y81.605 E3.68590
G1 X91.863 Y68.789 F7800.000
G1 X92.587 Y67.829 E3.76087 F1289.009
G1 X93.547 Y68.553 E3.83583
G1 X95.353 Y81.405 E4.64522
G1 X94.630 Y82.365 E4.72019
G1 X93.670 Y81.642 E4.79515
G1 X91.874 Y68.864 E5.59986
G1 X91.339 Y68.654 F7800.000
G1 X92.488 Y67.129 E5.71892 F1289.009
G1 X94.013 Y68.278 E5.83798
G1 X95.877 Y81.541 E6.67320
G1 X94.728 Y83.065 E6.79227
G1 X93.203 Y81.916 E6.91133
G1 X91.350 Y68.728 E7.74187
G1 X91.835 Y68.584 F7800.000
G1 F1800.000 E5.74187
G1 Z1.900 F7800.000
G92 E0
G1 X112.387 Y68.925 F7800.000
G1 Z0.900 F7800.000
G1 E2.00000 F1800.000
